static/img/icons/window.svg

<svg xmlns="http://www.w3.org/2000/svg" viewBox="0 0 32 32"><path stroke="#666" d="M5 5v17h4v-2H7V7h13v2h2V5zm5 5v17h17V10zm2 2h13v13H12z"/></svg>

<svg xmlns="http://www.w3.org/2000/svg" xmlns:xlink="http://www.w3.org/1999/xlink" viewBox="0 0 32 32" version="1.1">
<g id="surface1">
<path stroke="#666" style=" " d="M 5 5 L 5 22 L 9 22 L 9 20 L 7 20 L 7 7 L 20 7 L 20 9 L 22 9 L 22 5 Z M 10 10 L 10 27 L 27 27 L 27 10 Z M 12 12 L 25 12 L 25 25 L 12 25 Z "></path>
</g>
</svg>
